!!!COM: Music21
!!!OTL: hornpipe_McMahons
!!!OMV: hornpipe_McMahons
**kern
*clefG2
*k[f#]
*G:
*M4/4
=1
12gL
12f#
12eJ
=
8.dL
16gJk
8.bL
16gJk
8.ccL
16aJk
8.bL
16gJk
=
8.dL
16gJk
8.bL
16ddJk
8.ggL
16ff#Jk
8.ggL
16aaJk
=
8.bbL
16ggJk
12ggL
12gg
12ggJ
8.ddL
16ggJk
8.ddL
16bJk
!!linebreak:original
=
8.ccL
16bJk
8.aL
16gJk
8.f#L
16dJk
12cL
12B
12AJ
=
8.dL
16gJk
8.bL
16gJk
4cc
12bL
12a
12gJ
=
8.dL
16gJk
12bL
12cc
12ddJ
4gg
8.ggL
16aaJk
=
8.bbL
16ggJk
8.ff#L
16ggJk
8.ddL
16ggJk
8.ddL
16bJk
!!linebreak:original
=
8.ccL
16aJk
12f#L
12g
12aJ
4g
4ryy
=||
*M4/4
12gL
12f#
12eJ
=
8.dL
16gJk
8.bL
16gJk
8.ccL
16aJk
8.bL
16gJk
=
8.dL
16gJk
8.bL
16ddJk
8.ggL
16ff#Jk
8.ggL
16aaJk
=
8.bbL
16ggJk
12ggL
12gg
12ggJ
8.ddL
16ggJk
8.ddL
16bJk
!!linebreak:original
=
8.ccL
16bJk
8.aL
16gJk
8.f#L
16dJk
12cL
12B
12AJ
=
8.dL
16gJk
8.bL
16gJk
4cc
12bL
12a
12gJ
=
8.dL
16gJk
12bL
12cc
12ddJ
4gg
8.ggL
16aaJk
=
8.bbL
16ggJk
8.ff#L
16ggJk
8.ddL
16ggJk
8.ddL
16bJk
!!linebreak:original
=
8.ccL
16aJk
12f#L
12g
12aJ
4g
4ryy
=||
8.ggL
16aaJk
2.ryy
=
8.bbL
16ggJk
12ggL
12gg
12ggJ
8.aaL
16ggJk
8.eeL
16ff#Jk
=
8.ggL
16bbJk
8.ggL
16ddJk
8.eeL
16ddJk
12bL
12cc
12ddJ
=
8.eeL
16bJk
12bL
12a#X
12bJ
8.eeL
16bJk
8.ggL
16bJk
!!linebreak:original
=
8.eeL
16ddJk
8.ccL
16bJk
8.aL
16gJk
8.eL
16gJk
=
4d
12bL
12a
12gJ
8.ccL
16aJk
8.bL
16gJk
=
4d
12bL
12cc
12ddJ
8.ggL
16ff#Jk
8.ggL
16aaJk
=
8.bbL
16ggJk
12ggL
12gg
12ggJ
8.ddL
16ggJk
8.ddL
16bJk
!!linebreak:original
=
12ccL
12b
12aJ
8.f#L
16aJk
4g
4ryy
=||
8.ggL
16aaJk
2.ryy
=
8.bbL
16ggJk
12ggL
12gg
12ggJ
8.aaL
16ggJk
8.eeL
16ff#Jk
=
8.ggL
16bbJk
8.ggL
16ddJk
8.eeL
16ddJk
12bL
12cc
12ddJ
=
8.eeL
16bJk
12bL
12a#X
12bJ
8.eeL
16bJk
8.ggL
16bJk
!!linebreak:original
=
8.eeL
16ddJk
8.ccL
16bJk
8.aL
16gJk
8.eL
16gJk
=
4d
12bL
12a
12gJ
8.ccL
16aJk
8.bL
16gJk
=
4d
12bL
12cc
12ddJ
8.ggL
16ff#Jk
8.ggL
16aaJk
=
8.bbL
16ggJk
12ggL
12gg
12ggJ
8.ddL
16ggJk
8.ddL
16bJk
!!linebreak:original
=
12ccL
12b
12aJ
8.f#L
16aJk
4g
4ryy
=||
*-
